Adwaita++/actions/16/auto-transition.svg

<svg fill="none" height="16" viewBox="0 0 16 16" width="16" xmlns="http://www.w3.org/2000/svg">
  <g fill="#444">
    <path d="m0 5v6l3-3zm16 0-3 3 3 3zm-12 4c-.55228 0-1 .44772-1 1v5c0 .5523.44772 1 1 1h8c.5523 0 1-.4477 1-1v-5c0-.55228-.4477-1-1-1zm1 2h6v3h-6z"/>
    <path clip-rule="evenodd" d="m4.5 1.4c0-.22091-.17909-.4-.4-.4h-1.2c-.22091 0-.4.17909-.4.4v1.2c0 .22091.17909.4.4.4h1.2c.22091 0 .4-.17909.4-.4zm0 3c0-.22091-.17909-.4-.4-.4h-1.2c-.22091 0-.4.17909-.4.4v1.2c0 .22091.17909.4.4.4h1.2c.22091 0 .4-.17909.4-.4zm1-3c0-.22091.17909-.4.4-.4h1.2c.22091 0 .4.17909.4.4v1.2c0 .22091-.17909.4-.4.4h-1.2c-.22091 0-.4-.17909-.4-.4zm6 3c0-.22091.1791-.4.4-.4h1.2c.2209 0 .4.17909.4.4v1.2c0 .22091-.1791.4-.4.4h-1.2c-.2209 0-.4-.17909-.4-.4zm2-3c0-.22091-.1791-.4-.4-.4h-1.2c-.2209 0-.4.17909-.4.4v1.2c0 .22091.1791.4.4.4h1.2c.2209 0 .4-.17909.4-.4zm-5 0c0-.22091.17909-.4.4-.4h1.2c.2209 0 .4.17909.4.4v1.2c0 .22091-.1791.4-.4.4h-1.2c-.22091 0-.4-.17909-.4-.4z" fill-rule="evenodd"/>
  </g>
</svg>

<svg xmlns="http://www.w3.org/2000/svg" fill="none" width="16" height="16" viewBox="0 0 16 16">
 <path fill="#444" d="M0 5V11L3 8L0 5ZM16 5L13 8L16 11V5ZM4 9C3.44772 9 3 9.44772 3 10V15C3 15.5523 3.44772 16 4 16H12C12.5523 16 13 15.5523 13 15V10C13 9.44772 12.5523 9 12 9H4ZM5 11H11V14H5V11Z"/>
 <path fill="#444" fill-rule="evenodd" d="M4.5 1.4C4.5 1.17909 4.32091 1 4.1 1H2.9C2.67909 1 2.5 1.17909 2.5 1.4V2.6C2.5 2.82091 2.67909 3 2.9 3H4.1C4.32091 3 4.5 2.82091 4.5 2.6V1.4ZM4.5 4.4C4.5 4.17909 4.32091 4 4.1 4H2.9C2.67909 4 2.5 4.17909 2.5 4.4V5.6C2.5 5.82091 2.67909 6 2.9 6H4.1C4.32091 6 4.5 5.82091 4.5 5.6V4.4ZM5.5 1.4C5.5 1.17909 5.67909 1 5.9 1H7.1C7.32091 1 7.5 1.17909 7.5 1.4V2.6C7.5 2.82091 7.32091 3 7.1 3H5.9C5.67909 3 5.5 2.82091 5.5 2.6V1.4ZM11.5 4.4C11.5 4.17909 11.6791 4 11.9 4H13.1C13.3209 4 13.5 4.17909 13.5 4.4V5.6C13.5 5.82091 13.3209 6 13.1 6H11.9C11.6791 6 11.5 5.82091 11.5 5.6V4.4ZM13.5 1.4C13.5 1.17909 13.3209 1 13.1 1H11.9C11.6791 1 11.5 1.17909 11.5 1.4V2.6C11.5 2.82091 11.6791 3 11.9 3H13.1C13.3209 3 13.5 2.82091 13.5 2.6V1.4ZM8.5 1.4C8.5 1.17909 8.67909 1 8.9 1H10.1C10.3209 1 10.5 1.17909 10.5 1.4V2.6C10.5 2.82091 10.3209 3 10.1 3H8.9C8.67909 3 8.5 2.82091 8.5 2.6V1.4Z" clip-rule="evenodd"/>
</svg>
